X:189 
T:Sliabh Russell  
B:CRE 3.028 (same as title)
F:file ID: cre.3/189sl_russ
N:First word is pronounced (and sometimes spelled) 
"Slieve".
%Q:160
L:1/8
M:6/8
R:jig
K:G
"A dorian"
f|eAA Bcd|eaf ged|edB cBA|BGG Bcd|
eAA Bcd|eaf ged|edB cBA|BAG A2:|
g|eaa efg|age ged|eaa efg|fed e2d|
eaa efg|age ged|edB cBA|BAG A2:|

%%%

